X:522
L:1/4
M:4/4
K:C
 B/E/A/ ue2003/2 |[M:3/4][K:G]SOSOO .!fermata!PMTC/O[Q:1/4=90]"_VB"(MB/c/) | (d g f) | (g a b) | 
 (g f d) | d2 (d/e/) | =f e d | e f g | d c B | c2 (B/c/) | (d g f) | (g a b) | (g f d) | 
 c2 (B/c/) | (d e f) | (e d B) | (A G) .G | G2 || f/e/ | d c A | (.G .G) (A/B/) | c d (B/G/) | 
 A2 (d/>c/) | (d g f) | (d c) (B/G/) | (A G) G | G2 (f/>e/) | (d c A) | G G (A/B/) | c d (B/G/) | 
 A2 (d/c/) | d g (f/4g/4a/) | g (d/c/) (B/c/) | (A G) .G | G2 |]

